!!!COM: Haydn, Franz Joseph
!!!OTL: String Quartet in F Major
!!!OPS: Opus 17
!!!ONM: No. 2
!!!OMD: Moderato
!!!OMV: 1
!!!SCT: H III:26
!!!SCA: Thematisch-bibliographisches Werkevererzeichnis (A. van Hoboken)
!!!YOR: Trautwein Edition
!!!ENC: Frances Bennion
!!!CDT: 1732/3/31/-1809/5/31/
!!!CNT: Oesterreich
!!!YEC: Copyright (c) 1994, 2000 Center for Computer Assisted Research in the Humanities
!!!YEM: Rights to all derivative editions reserved.
!!!YEM: Refer to licensing agreement for further details.
!!!YEN: United States of America
**kern	**kern	**kern	**kern
*k[b-]	*k[b-]	*k[b-]	*k[b-]
*F:	*F:	*F:	*F:
*clefF4	*clefC3	*clefG	*clefG
*M4/4	*M4/4	*M4/4	*M4/4
8F	8f	8a	2.cc
8F	8f	8a	.
8F	8f	8a	.
8F	8f	8a	.
8F	8f	8a	.
8F	8f	8a	.
8F	8f	8a	4ff
8F	8f	8a	.
=2	=2	=2	=2
1C	[1g	[1b-	8ff
.	.	.	8ee
.	.	.	2ee
.	.	.	16cc
.	.	.	8.ccc
=3	=3	=3	=3
2.E	2.g]	2.b-]	16ccc
.	.	.	16bb-
.	.	.	16aa
.	.	.	16gg
.	.	.	16ff
.	.	.	16ee
.	.	.	16dd
.	.	.	16cc
.	.	.	8cc
.	.	.	8cc#
4E	4g	8.b-	8.dd
.	.	16g	16b-
=4	=4	=4	=4
4F	4c	4f	8a
.	.	.	16g
.	.	.	16f
8r	8r	8r	4f
8B-	8F	8d	.
8A	4F	8c	2r
16G	.	16B-	.
16F	.	16A	.
8E	8C	8G	.
8C	8E	16A	.
.	.	16B-	.
=5	=5	=5	=5
8FF	8F	8A	[2.cc
8F	8f	8a	.
8F	8f	8a	.
8F	8f	8a	.
8F	8f	8a	.
8F	8f	8a	.
8F	8f	8a	16cc]
.	.	.	16aa
8F	8f	8a	16gg
.	.	.	16ff
=6	=6	=6	=6
2C	4g	4b-	8ff
.	.	.	8ee
.	16g	16b-	[2ee
.	16f#	16a	.
.	16g	16b-	.
.	16f#	16a	.
16c	4.g	2b-	.
16B	.	.	.
16c	.	.	.
16B	.	.	.
4c	.	.	16ee]
.	.	.	16bb-
.	8e	.	16aa
.	.	.	16gg
=7	=7	=7	=7
2c	4f	4a	8gg
.	.	.	8ff
.	16f	16a	[2ff
.	16e	16g#	.
.	16f	16a	.
.	16e	16g#	.
16c	4.f	2a	.
16B	.	.	.
16c	.	.	.
16B	.	.	.
4c	.	.	16ff]
.	.	.	16ccc
.	8f#	.	16bb-
.	.	.	16aa
=8	=8	=8	=8
4c	4g	4b-	16aa
.	.	.	16gg
.	.	.	16ff#
.	.	.	16gg
16c	2g	2e	4..bb-
16d-	.	.	.
16c	.	.	.
16d-	.	.	.
4.c	.	.	.
.	.	.	32gg
.	.	.	32ee
.	8g	8e	8cc
8E	8c	8g	8b-
=9	=9	=9	=9
4F	4c	4f	8a
.	.	.	16g
.	.	.	16f
2r	8r	8r	4f
.	8b-	8dd	.
.	8a	8cc	4.r
.	16g	16b-	.
.	16f	16a	.
8r	8e	8g	.
8C	8G	8e	8bb-
=10	=10	=10	=10
4F	4A	4f	16bb-
.	.	.	16aa
.	.	.	16gg
.	.	.	16ff
2r	8r	8r	8ff
.	8b-	8dd	2r
.	8a	8cc	.
.	16g	16b-	.
.	16f	16a	.
8r	8e	8g	.
8C	8G	8e	8bb-
=11	=11	=11	=11
4F	4A	4f	16bb-
.	.	.	16aa
.	.	.	16gg
.	.	.	16ff
2r	8r	8r	8ff
.	8b-	8dd	2r
.	8a	8cc	.
.	16g	16b-	.
.	16f	16a	.
8r	8e	8g	.
8A	8A 8e	8cc# 8e	8r
=12	=12	=12	=12
8D	8f 8A	8d 8dd	2.aa
8d	8d	8f	.
8d	8d	8f	.
8d	8d	8f	.
8d	8d	8f	.
8d	8d	8f	.
8d	8d	8f	16gg
.	.	.	16ff
8d	8d	8f	16ee
.	.	.	16dd
=13	=13	=13	=13
[1A	1e	1g	8dd
.	.	.	8cc#
.	.	.	4cc#
.	.	.	16cc#
.	.	.	16ee
.	.	.	16dd
.	.	.	16ff
.	.	.	16ee
.	.	.	16gg
.	.	.	16ff
.	.	.	16aa
=14	=14	=14	=14
1A]	8A	16c#	[2gg
.	.	16e	.
.	8B	16d	.
.	.	16f	.
.	8c#	16e	.
.	.	16g	.
.	8d	16f	.
.	.	16a	.
.	4.e	4.g	8gg]
.	.	.	8B-
.	.	.	8A
.	8c#	8e	8gg
=15	=15	=15	=15
4D	4d	4f	8ff
.	.	.	16ee
.	.	.	16dd
2r	8r	8r	8dd
.	8f	8a	2r
.	8e	8g	.
.	16d	16f	.
.	16c	16e	.
8r	8B	8d	.
8G	8f 8G	8b 8d	8r
=16	=16	=16	=16
8C	8G 8e	8e 8cc	2.gg
8c	8c	8e	.
8c	8c	8e	.
8c	8c	8e	.
8c	8c	8e	.
8c	8c	8e	.
8c	8c	8e	16ff
.	.	.	16ee
8c	8c	8e	16dd
.	.	.	16cc
=17	=17	=17	=17
8G	1d	1f	8cc
8G	.	.	8b
8G	.	.	2b
8G	.	.	.
8G	.	.	.
8G	.	.	.
8G	.	.	8ff
8G	.	.	16ee
.	.	.	16dd
=18	=18	=18	=18
8G	[1e	1g	8dd
8G	.	.	8cc
8G	.	.	[4cc
8G	.	.	.
8G	.	.	16cc]
.	.	.	16gg
8G	.	.	16ff#
.	.	.	16gg
8G	.	.	8gg
8G	.	.	16ff
.	.	.	16ee
=19	=19	=19	=19
8A	4e]	2.f#	8dd
8A	.	.	8cc
8A	2d	.	2ccc
8A	.	.	.
8A	.	.	.
8A	.	.	.
8A	4d	4cc	4ff#
8A	.	.	.
=20	=20	=20	=20
4G	4d	16b	[1gg
.	.	16g	.
.	.	16g	.
.	.	16g	.
2.r	8r	16g	.
.	.	16g	.
.	8f	16b	.
.	.	16g	.
.	4e	16cc	.
.	.	16g	.
.	.	16g	.
.	.	16g	.
.	4B	16dd	.
.	.	16g	.
.	.	16g	.
.	.	16g	.
=21	=21	=21	=21
4.r	4c	16ee	1gg_
.	.	16g	.
.	.	16g	.
.	.	16g	.
.	2.r	16g	.
.	.	16g	.
8f	.	16b	.
.	.	16g	.
4e	.	16cc	.
.	.	16g	.
.	.	16g	.
.	.	16g	.
4B	.	16dd	.
.	.	16g	.
.	.	16g	.
.	.	16g	.
=22	=22	=22	=22
4c	4.r	16ee-	2.gg]
.	.	16g	.
.	.	16g	.
.	.	16g	.
2.r	.	16g	.
.	.	16g	.
.	8f	16b	.
.	.	16g	.
.	4e-	16cc	.
.	.	16g	.
.	.	16g	.
.	.	16g	.
.	4B	16dd	4ff
.	.	16g	.
.	.	16g	.
.	.	16g	.
=23	=23	=23	=23
16c	[1c	[1cc	[1ee-
16G	.	.	.
16G	.	.	.
16G	.	.	.
16G	.	.	.
16E-	.	.	.
16E-	.	.	.
16E-	.	.	.
16E-	.	.	.
16C	.	.	.
16C	.	.	.
16C	.	.	.
16C	.	.	.
16AA-	.	.	.
16AA-	.	.	.
16AA-	.	.	.
=24	=24	=24	=24
2.AA-	8c]	8cc]	8ee-]
.	8c	8f#	16ee-
.	.	.	16dd
.	8c	8f#	16ee-
.	.	.	16dd
.	8c	8f#	16ee-
.	.	.	16dd
.	2c	2f#	4ee-
4A-	.	.	4c
=25	=25	=25	=25
8G	8d	8g	16B
.	.	.	16b
8G	8B	8g	16d
.	.	.	16dd
8G	8B	8g	16f
.	.	.	16ff
8G	8B	8g	16g
.	.	.	16gg
8F	8b	8g	16b
.	.	.	16bb
8F	8b	8g	16dd
.	.	.	16ddd
8F	8b	8g	16ccc
.	.	.	16bb
8F	8b	8g	16aa
.	.	.	16gg
=26	=26	=26	=26
4E	4cc	16c	4ccc
.	.	16cc	.
.	.	16e	.
.	.	16cc	.
4r	4r	16g	4eee
.	.	16cc	.
.	.	16e	.
.	.	16cc	.
4E	4e	16c	4.ggg
.	.	16cc	.
.	.	16e	.
.	.	16cc	.
4r	4r	16g	.
.	.	16cc	.
.	.	16e	16fff
.	.	16cc	16eee
=27	=27	=27	=27
4F	4f	16d	4ddd
.	.	16cc	.
.	.	16f	.
.	.	16cc	.
4r	4r	16a	4fff
.	.	16cc	.
.	.	16f	.
.	.	16cc	.
4F	4f	16d	4.aaa
.	.	16cc	.
.	.	16f	.
.	.	16cc	.
8r	8r	16a	.
.	.	16cc	.
8F#	8f#	16f#	8f#
.	.	16cc	.
=28	=28	=28	=28
4G	8g	8g	2g
.	8e	8g	.
4r	8e	8g	.
.	16d	16f	.
.	16c	16e	.
4G	8B	8d	2dd
.	8d	8f	.
4r	8d	8f	.
.	16c	16e	.
.	16B	16d	.
=29	=29	=29	=29
2A	2c	2f#	8cc
.	.	.	8cc
.	.	.	16b
.	.	.	16cc
.	.	.	16dd
.	.	.	16cc
2G	2e	2c	4gg
.	.	.	16ff
.	.	.	16ee
.	.	.	16dd
.	.	.	16cc
=30	=30	=30	=30
2A	2c	2f#	8cc
.	.	.	8cc
.	.	.	16b
.	.	.	16cc
.	.	.	16dd
.	.	.	16cc
2G	2e	2c	4gg
.	.	.	16ff
.	.	.	16ee
.	.	.	16dd
.	.	.	16cc
=31	=31	=31	=31
2A	2c	2f#	8cc
.	.	.	8cc
.	.	.	16b
.	.	.	16cc
.	.	.	16dd
.	.	.	16cc
2r	2r	2r	4ccc
.	.	.	4r
=32	=32	=32	=32
2r	[1c	2r	2e
2F#	.	2e	[2a
=33	=33	=33	=33
1G	4c]	1d	4a]
.	2B	.	4d
.	.	.	4g
.	4B	.	4f
=34	=34	=34	=34
4A	4c	4c	4e
4E	4G	4c	16cc
.	.	.	16dd
.	.	.	16ee
.	.	.	16cc
4F	4A	4c	16a
.	.	.	16b
.	.	.	16cc
.	.	.	16a
4r	4r	4r	16f
.	.	.	16g
.	.	.	16a
.	.	.	16f
=35	=35	=35	=35
4G	8r	8r	2G
.	8e	8g	.
4r	8e	8g	.
.	16d	16f	.
.	16c	16e	.
4G	8B	8d	2dd
.	8d	8f	.
4r	8d	8f	.
.	16c	16e	.
.	16B	16d	.
=36	=36	=36	=36
4C	8c	8e	[2cc
.	8e	8g	.
2.r	8e	8g	.
.	16d	16f	.
.	16c	16e	.
.	4f	4a	8cc]
.	.	.	8ff
.	4d	4b	8ff
.	.	.	16ee
.	.	.	16dd
=37	=37	=37	=37
4C	8e	8cc	[2cc
.	8e	8g	.
2.r	8e	8g	.
.	16d	16f	.
.	16c	16e	.
.	4f	4a	8cc]
.	.	.	8ff
.	4d	4b	8ff
.	.	.	16ee
.	.	.	16dd
=38	=38	=38	=38
4C	8e	8cc	1cc
.	8e	8g	.
2.r	8e	8g	.
.	16d	16f	.
.	16c	16e	.
.	8e	8g	.
.	8g	8b-	.
.	8g	8b-	.
.	16f	16a	.
.	16e	16g	.
=39	=39	=39	=39
8F	8f	8a	2.cc
8F	8f	8a	.
8F	8f	8a	.
8F	8f	8a	.
8F	8f	8a	.
8F	8f	8a	.
8F	8f	8a	4ff
8F	8f	8a	.
=40	=40	=40	=40
[1F#	[1a	[1cc	8ff
.	.	.	8ee-
.	.	.	2ee-
.	.	.	16dd
.	.	.	8.ddd
=41	=41	=41	=41
2.F#]	2.a]	2.cc]	16ddd
.	.	.	16ccc
.	.	.	16bb-
.	.	.	16aa
.	.	.	16gg
.	.	.	16ff#
.	.	.	16ee-
.	.	.	16dd
.	.	.	8dd
.	.	.	4ee-
4F#	4A	4d	.
.	.	.	16dd
.	.	.	16cc
=42	=42	=42	=42
4G	4B-	4d	8b-
.	.	.	16a
.	.	.	16g
8r	2.r	8r	4g
8c	.	8e-	.
8B-	.	16e-	2r
.	.	16d	.
16A	.	16c	.
16G	.	16B-	.
8F#	.	8A	.
8D	.	16B-	.
.	.	16c	.
=43	=43	=43	=43
4G	16r	4B-	2dd
.	16g	.	.
.	16f#	.	.
.	16g	.	.
2.r	16d	2.r	.
.	16g	.	.
.	16B-	.	.
.	16d	.	.
.	16G	.	2gg
.	16A	.	.
.	16B-	.	.
.	16c	.	.
.	16d	.	.
.	16e	.	.
.	16f#	.	.
.	16g	.	.
=44	=44	=44	=44
16r	4d	2a	8gg
16d	.	.	.
16c#	.	.	8ff#
16d	.	.	.
16A	4r	.	4ff#
16d	.	.	.
16F#	.	.	.
16A	.	.	.
16D	4F#	2cc	2r
16E	.	.	.
16F#	.	.	.
16G	.	.	.
16A	4r	.	.
16B	.	.	.
16c	.	.	.
16d	.	.	.
=45	=45	=45	=45
4G	16r	8cc	2dd
.	16g	.	.
.	16f#	8b	.
.	16g	.	.
2.r	16d	4b	.
.	16g	.	.
.	16B	.	.
.	16d	.	.
.	16G	2r	2ff
.	16A	.	.
.	16B	.	.
.	16c	.	.
.	16d	.	.
.	16e	.	.
.	16f	.	.
.	16g	.	.
=46	=46	=46	=46
16r	4c	2g	8ff
16c	.	.	.
16B	.	.	8ee
16c	.	.	.
16G	4r	.	4ee
16c	.	.	.
16E	.	.	.
16G	.	.	.
16C	4E	2b-	2r
16D	.	.	.
16E	.	.	.
16F	.	.	.
16G	4r	.	.
16A	.	.	.
16B-	.	.	.
16c	.	.	.
=47	=47	=47	=47
16F	2cc	8b-	1r
16F	.	.	.
16E	.	8a	.
16F	.	.	.
16C	.	4a	.
16F	.	.	.
16AA	.	.	.
16C	.	.	.
16FF	2ee-	2r	.
16GG	.	.	.
16AA	.	.	.
16BB-	.	.	.
16C	.	.	.
16D	.	.	.
16E-	.	.	.
16F	.	.	.
=48	=48	=48	=48
16BB-	8ee-	16r	2ff
16B-	.	16dd	.
16A	8dd	16cc	.
16B-	.	16dd	.
16F	2dd	16b-	.
16B-	.	16dd	.
16D	.	16f	.
16F	.	16b-	.
16BB-	.	16d	2bb-
16C	.	16e-	.
16D	.	16f	.
16E-	.	16g	.
16F	4dd	16a	.
16G	.	16b-	.
16A	.	16cc	.
16B-	.	16dd	.
=49	=49	=49	=49
1F	1cc	1ee-	8bb-
.	.	.	8aa
.	.	.	2aa
.	.	.	4fff
=50	=50	=50	=50
2.A	2.f	2.cc	16fff
.	.	.	16eee-
.	.	.	16ddd
.	.	.	16ccc
.	.	.	16bb-
.	.	.	16aa
.	.	.	16gg
.	.	.	16ff
.	.	.	8ff
.	.	.	8ff#
4A	4A	4cc	8gg
.	.	.	8ee-
=51	=51	=51	=51
8B-	8B-	8dd	16dd
.	.	.	16ff
8B-	8f	8dd	16gg
.	.	.	16ff
8B-	8f	8dd	16bb-
.	.	.	16ff
8B-	8f	8dd	16gg
.	.	.	16ff
8B-	8f	8dd	16ddd
.	.	.	16ff
8B-	8f	8dd	16gg
.	.	.	16ff
8B-	8f	8dd	16fff
.	.	.	16ff
8B-	8f	8dd	16gg
.	.	.	16ff
=52	=52	=52	=52
1A	1f	1cc	8eee-
.	.	.	8ddd
.	.	.	8ccc
.	.	.	8bb-
.	.	.	8aa
.	.	.	8gg
.	.	.	8ff
.	.	.	8ee-
=53	=53	=53	=53
8r	8r	8r	16dd
.	.	.	16ff
8B-	8f	8dd	16gg
.	.	.	16ff
8r	8r	8r	16bb-
.	.	.	16ff
8B-	8f	8dd	16gg
.	.	.	16ff
8r	8r	8r	16ddd
.	.	.	16ff
8B-	8f	8dd	16gg
.	.	.	16ff
8r	8r	8r	16fff
.	.	.	16ff
8B-	8f	8dd	16gg
.	.	.	16ff
=54	=54	=54	=54
1A	1f	1cc	16eee-
.	.	.	16fff
.	.	.	16ddd
.	.	.	16eee-
.	.	.	16ccc
.	.	.	16ddd
.	.	.	16bb-
.	.	.	16ccc
.	.	.	16aa
.	.	.	16bb-
.	.	.	16gg
.	.	.	16aa
.	.	.	16ff
.	.	.	16gg
.	.	.	16ee-
.	.	.	16ff
=55	=55	=55	=55
8B-	4f	16dd	8dd
.	.	16ee-	.
8B-	.	16ff	4ff
.	.	16ee-	.
8B-	4.r	16dd	.
.	.	16ee-	.
8B-	.	16cc	4bb-
.	.	16dd	.
8B-	.	16b-	.
.	.	16ff	.
8B-	16f	16dd	4ddd
.	16e-	16cc	.
8B-	8d	16b-	.
.	.	16cc	.
8B-	8d	16a	8fff
.	.	16b-	.
=56	=56	=56	=56
8B-	8d	8g#	8fff
8BB-	8f	8g#	8d
8BB-	8f	8g#	8d
8BB-	8f	8g#	8d
8BB-	4f	4g#	4d
8BB-	.	.	.
8BB-	4D	4d	4G#
8BB-	.	.	.
=57	=57	=57	=57
4AA	4E	4c#	16A
.	.	.	16a
.	.	.	16c#
.	.	.	16cc#
4r	4r	4r	16e
.	.	.	16ee
.	.	.	16g
.	.	.	16gg
4G	4e	4cc#	16b-
.	.	.	16bb-
.	.	.	16a
.	.	.	16aa
4r	4r	4r	16a
.	.	.	16ccc#
.	.	.	16ee
.	.	.	16ccc#
=58	=58	=58	=58
4F	4f	16d	8.ddd
.	.	16dd	.
.	.	16f	.
.	.	16dd	16aa
4r	4r	16a	8.fff
.	.	16dd	.
.	.	16f	.
.	.	16dd	16ddd
4F	4f	16d	4.aaa
.	.	16dd	.
.	.	16f	.
.	.	16dd	.
4r	4r	16a	.
.	.	16dd	.
.	.	16f	16ggg
.	.	16dd	16fff
=59	=59	=59	=59
4G	4g	16e	4eee
.	.	16dd	.
.	.	16g	.
.	.	16dd	.
4r	4r	16b-	4ggg
.	.	16dd	.
.	.	16g	.
.	.	16dd	.
4G	4G	16e	4.bbb-
.	.	16dd	.
.	.	16g	.
.	.	16dd	.
8r	8r	16b-	.
.	.	16dd	.
8G#	8G#	16g#	8G#
.	.	16dd	.
=60	=60	=60	=60
4A	8A	8a	2A
.	8f	8a	.
4r	8f	8a	.
.	16e	16g	.
.	16d	16f	.
4A	8c#	8e	2ee
.	8e	8g	.
4r	8e	8g	.
.	16f	16f	.
.	16g	16e	.
=61	=61	=61	=61
2B-	[1f	2g#	8dd
.	.	.	8dd
.	.	.	16cc#
.	.	.	16dd
.	.	.	16ee
.	.	.	16dd
2A	.	2d	4aa
.	.	.	16gg
.	.	.	16ff
.	.	.	16ee
.	.	.	16dd
=62	=62	=62	=62
2B-	1f_	2g#	8dd
.	.	.	8dd
.	.	.	16cc#
.	.	.	16dd
.	.	.	16ee
.	.	.	16dd
2A	.	2d	4aa
.	.	.	16gg
.	.	.	16ff
.	.	.	16ee
.	.	.	16dd
=63	=63	=63	=63
2B-	2f]	2g#	8dd
.	.	.	8dd
.	.	.	16cc#
.	.	.	16dd
.	.	.	16ee
.	.	.	16dd
2r	2r	2r	4ddd
.	.	.	4r
=64	=64	=64	=64
2r	[1d	2r	2f
2G#	.	2f	[2b
=65	=65	=65	=65
2.A	4d]	2.e	4b]
.	4c#	.	4e
.	[2c	.	[2a
4F#	.	4e-	.
=66	=66	=66	=66
2.G	4c]	2.d	4a]
.	4B	.	4d
.	[2B-	.	[2g
4E	.	4d-	.
=67	=67	=67	=67
2F	4B-]	2.c	4g]
.	2A	.	4c
2D	.	.	2f
.	4G	4B	.
=68	=68	=68	=68
4C	8G	8c	[2cc
.	8e	8g	.
2.r	8e	8g	.
.	16d	16f	.
.	16c	16e	.
.	4f	4a	8cc]
.	.	.	8ff
.	4d	4b	8ff
.	.	.	16ee
.	.	.	16dd
=69	=69	=69	=69
4C	8e	8cc	[2cc
.	8e	8g	.
2.r	8e	8g	.
.	16d	16f	.
.	16c	16e	.
.	4f	4a	8cc]
.	.	.	8ff
.	4d	4b	8ff
.	.	.	16ee
.	.	.	16dd
=70	=70	=70	=70
4C	8e	8cc	1cc
.	8e	8g	.
2.r	8e	8g	.
.	16d	16f	.
.	16c	16e	.
.	8e	8g	.
.	8g	8b-	.
.	8g	8b-	.
.	16f	16a	.
.	16e	16g	.
=71	=71	=71	=71
8F	8f	8a	2.cc
8F	8f	8a	.
8F	8f	8a	.
8F	8f	8a	.
8F	8f	8a	.
8F	8f	8a	.
8F	8f	8a	4ff
8F	8f	8a	.
=72	=72	=72	=72
1C	[1g	[1b-	8ff
.	.	.	8ee
.	.	.	2ee
.	.	.	16cc
.	.	.	8.ccc
=73	=73	=73	=73
2.E	2.g]	2.b-]	16ccc
.	.	.	16bb-
.	.	.	16aa
.	.	.	16gg
.	.	.	16ff
.	.	.	16ee
.	.	.	16dd
.	.	.	16cc
.	.	.	8cc
.	.	.	8cc#
4E	4g	8.b-	8.dd
.	.	16g	16b-
=74	=74	=74	=74
4F	4c	4f	8a
.	.	.	16g
.	.	.	16f
8r	8r	8r	4f
8B-	8F	8d	.
8A	4F	8c	2r
16G	.	16B-	.
16F	.	16A	.
8E	8C	8G	.
8C	8E	16A	.
.	.	16B-	.
=75	=75	=75	=75
8FF	8F	8A	[2.cc
8F	8f	8a	.
8F	8f	8a	.
8F	8f	8a	.
8F	8f	8a	.
8F	8f	8a	.
8F	8f	8a	16cc]
.	.	.	16aa
8F	8f	8a	16gg
.	.	.	16ff
=76	=76	=76	=76
2C	4g	4b-	8ff
.	.	.	8ee
.	16g	16b-	[2ee
.	16f#	16a	.
.	16g	16b-	.
.	16f#	16a	.
16c	4.g	2b-	.
16B	.	.	.
16c	.	.	.
16B	.	.	.
4c	.	.	16ee]
.	.	.	16bb-
.	8e	.	16aa
.	.	.	16gg
=77	=77	=77	=77
2c	4f	4a	8gg
.	.	.	8ff
.	16f	16a	[2ff
.	16e	16g#	.
.	16f	16a	.
.	16e	16g#	.
16c	4.f	2a	.
16B	.	.	.
16c	.	.	.
16B	.	.	.
4c	.	.	16ff]
.	.	.	16ccc
.	8f#	.	16bb-
.	.	.	16aa
=78	=78	=78	=78
2c	4g	4b-	16aa
.	.	.	16gg
.	.	.	16ff#
.	.	.	16gg
.	16g	16b-	[2gg
.	16f#	16a	.
.	16g	16b-	.
.	16f#	16a	.
16c	4.g	2b-	.
16B	.	.	.
16c	.	.	.
16B	.	.	.
4c	.	.	16gg]
.	.	.	16bb-
.	8e	.	16aa
.	.	.	16gg
=79	=79	=79	=79
4d-	1f	4a-	16gg
.	.	.	16ff
.	.	.	16ee
.	.	.	16ff
16d-	.	16a-	4ff
16c	.	16g	.
16d-	.	16a-	.
16c	.	16g	.
4d-	.	2a-	16ff
.	.	.	16ee
.	.	.	16ff
.	.	.	16ee
16d-	.	.	4ff
16c	.	.	.
16d-	.	.	.
16c	.	.	.
=80	=80	=80	=80
2d-	2f	16a-	16ff
.	.	16g	16ee
.	.	16a-	16ff
.	.	16g	16ee
.	.	4a-	16ff
.	.	.	16gg
.	.	.	16aa-
.	.	.	16gg
4d	[2a-	4b	16ff
.	.	.	16gg
.	.	.	16ff
.	.	.	16gg
16d	.	16b	4ff
16e	.	16cc	.
16d	.	16b	.
16e	.	16cc	.
=81	=81	=81	=81
4d	2a-]	4b	16gg
.	.	.	16ff
.	.	.	16gg
.	.	.	16ff
16d	.	16b	4ff
16e	.	16cc	.
16d	.	16b	.
16e	.	16cc	.
2d	4.a-	4.b	16ff
.	.	.	16ee
.	.	.	16ff
.	.	.	16ee
.	.	.	16ff
.	.	.	16aa-
.	8B	8ff	16gg
.	.	.	16ff
=82	=82	=82	=82
4c	4c	16ee	[1ccc
.	.	16cc	.
.	.	16cc	.
.	.	16cc	.
2.r	8r	16cc	.
.	.	16cc	.
.	8b-	16ee	.
.	.	16cc	.
.	4a	16ff	.
.	.	16cc	.
.	.	16cc	.
.	.	16cc	.
.	4e	16gg	.
.	.	16cc	.
.	.	16cc	.
.	.	16cc	.
=83	=83	=83	=83
4.r	4f	16aa	1ccc_
.	.	16cc	.
.	.	16cc	.
.	.	16cc	.
.	2.r	16cc	.
.	.	16cc	.
8B-	.	16ee	.
.	.	16cc	.
4A	.	16ff	.
.	.	16cc	.
.	.	16cc	.
.	.	16cc	.
4E	.	16gg	.
.	.	16cc	.
.	.	16cc	.
.	.	16cc	.
=84	=84	=84	=84
4F	4.r	16aa-	2.ccc]
.	.	16cc	.
.	.	16cc	.
.	.	16cc	.
2.r	.	16cc	.
.	.	16cc	.
.	8b-	16ee	.
.	.	16cc	.
.	4a-	16ff	.
.	.	16cc	.
.	.	16cc	.
.	.	16cc	.
.	4e	16gg	4bb-
.	.	16cc	.
.	.	16cc	.
.	.	16cc	.
=85	=85	=85	=85
16F	[1f	[1ff	[1aa-
16C	.	.	.
16C	.	.	.
16C	.	.	.
16C	.	.	.
16AA-	.	.	.
16AA-	.	.	.
16AA-	.	.	.
16AA-	.	.	.
16FF	.	.	.
16FF	.	.	.
16FF	.	.	.
16FF	.	.	.
16DD-	.	.	.
16DD-	.	.	.
16DD-	.	.	.
=86	=86	=86	=86
2.DD-	8f]	8ff]	8aa-]
.	8f	8b	16aa-
.	.	.	16gg
.	8f	8b	16aa-
.	.	.	16gg
.	8f	8b	16aa-
.	.	.	16gg
.	2f	2b	4aa-
4D-	.	.	4f
=87	=87	=87	=87
8C	8g	8cc	16e
.	.	.	16cc
8C	8e	8cc	16g
.	.	.	16ee
8C	8e	8cc	16cc
.	.	.	16gg
8C	8e	8cc	16ee
.	.	.	16ccc
8B-	8e	8cc	16e
.	.	.	16cc
8B-	8e	8cc	16g
.	.	.	16ee
8B-	8e	8cc	16cc
.	.	.	16gg
8B-	8e	8cc	16ee
.	.	.	16ccc
=88	=88	=88	=88
8A	8f	2cc	16a
.	.	.	16ff
8A	8f	.	16cc
.	.	.	16aa
8A	8f	.	16ff
.	.	.	16ccc
8A	8f	.	16ff
.	.	.	16fff
4A	4f	16f	2fff
.	.	16ff	.
.	.	16a	.
.	.	16ff	.
4r	4r	16cc	.
.	.	16ff	.
.	.	16a	.
.	.	16ff	.
=89	=89	=89	=89
4B-	4B-	16f	2ddd
.	.	16ff	.
.	.	16b-	.
.	.	16ff	.
4r	4r	16dd	.
.	.	16ff	.
.	.	16b-	.
.	.	16ff	.
4B-	4B-	16g	4bb-
.	.	16ff	.
.	.	16b-	.
.	.	16ff	.
4r	4r	16dd	4ff
.	.	16ff	.
.	.	16b-	.
.	.	16ff	.
=90	=90	=90	=90
4c	8c	8a	2cc
.	8a	8cc	.
4r	8a	8cc	.
.	16g	16b-	.
.	16f	16a	.
4c	8e	8g	2gg
.	8g	8b-	.
4r	8g	8b-	.
.	16f	16a	.
.	16e	16g	.
=91	=91	=91	=91
2d	2f	2b	8ff
.	.	.	8ff
.	.	.	16ee
.	.	.	16ff
.	.	.	16gg
.	.	.	16ff
2c	2a	2f	4ccc
.	.	.	16bb-
.	.	.	16aa
.	.	.	16gg
.	.	.	16ff
=92	=92	=92	=92
2d	2f	2b	8ff
.	.	.	8ff
.	.	.	16ee
.	.	.	16ff
.	.	.	16gg
.	.	.	16ff
2c	2a	2f	4ccc
.	.	.	16bb-
.	.	.	16aa
.	.	.	16gg
.	.	.	16ff
=93	=93	=93	=93
2d	2f	2b	8ff
.	.	.	8ff
.	.	.	16ee
.	.	.	16ff
.	.	.	16gg
.	.	.	16ff
2r	2r	2r	4fff
.	.	.	4r
=94	=94	=94	=94
2r	[1f	2r	2a
2B	.	2a	[2dd
=95	=95	=95	=95
1c	4f]	1g	4dd]
.	2e	.	4g
.	.	.	4cc
.	4e	.	4b-
=96	=96	=96	=96
4d	4f	4f	4a
4A	4c	4f	16ff
.	.	.	16gg
.	.	.	16aa
.	.	.	16ff
4B-	4d	4f	16dd
.	.	.	16ee
.	.	.	16ff
.	.	.	16dd
4r	4r	4r	16b-
.	.	.	16cc
.	.	.	16dd
.	.	.	16b-
=97	=97	=97	=97
4c	8r	8r	2c
.	8a	8cc	.
4r	8a	8cc	.
.	16g	16b-	.
.	16f	16a	.
4C	8e	8g	2gg
.	8g	8b-	.
4r	8g	8b-	.
.	16f	16a	.
.	16e	16g	.
=98	=98	=98	=98
4F	8f	8a	[2ff
.	8a	8cc	.
2.r	8a	8cc	.
.	16g	16b-	.
.	16f	16a	.
.	4b-	4dd	8ff]
.	.	.	8bb-
.	4g	4ee	8bb-
.	.	.	16aa
.	.	.	16gg
=99	=99	=99	=99
4F	8a	8ff	[2ff
.	8a	8cc	.
2.r	8a	8cc	.
.	16g	16b-	.
.	16f	16a	.
.	4.b-	4.dd	8ff]
.	.	.	16dd
.	.	.	16b-
.	.	.	16a
.	.	.	16g
.	8G	8B-	16f
.	.	.	16e
=100	=100	=100	=100
[2FF	2G	2B-	2e
8FF]	8A	8A	16f
.	.	.	16a
4.r	4.r	4.r	16g
.	.	.	16b-
.	.	.	16a
.	.	.	16cc
.	.	.	16b-
.	.	.	16dd
=101	=101	=101	=101
[2FF	2G	2B-	2e
8FF]	8A	8A	8f
4.r	4.r	4.r	4.r
==	==	==	==
*-	*-	*-	*-
!!!RWG1: This file contains only pitch and duration data.
!!!RWG2: Transposing instruments are not transposed.
!!!RWG3: Spines may have incompatible meters.
!!!RWG4: Durations of rests and tied notes may be interpreted.
!!!RWG: Key is interpreted using the Humdrum key tool.
!!!GTL: 6 Divertimentos
!!!AFT: stage1
!!!END: 1997/04/15
!!!KEY: 1208958537
!!!EMD: Converted from MuseData to Humdrum Dec 16, 2000, by Andreas Kornstaedt using muse2kern.
!!!EMD: Manual editing by Craig Sapp, Nov 2001
